X:23
T:God Himself is Present
%%stretchlast false
M:4/4
L:1/4
K:F clef=C1
"^I"[Fcfa] [Fcfa] "^I¹"[Acfa] "^I"[Fcfa] | [Ccfg] "^V"[Cceg]/ [Ccdg]/ [Cceg]2 | "^vi"[DAdf] [DAdf] "^vi¹"[FAdf] "^vi"[DAdf] | [A,Ade] "^III"[A,A_de]/ [A,A=Be]/ "^iii"[A,Ace]2 | "^IV"[B,Fd] "^IV¹"[DFBd] "^I"[FAc] "^vi"[DAdf] | "^V"[Cceg] "^I"[Fcfa] [Ccfg] "^V"[Cceg] | "^I"[F,Af]4 | [Fcfa] [Fcfa] "^I¹"[Acfa] "^I"[Fcfa] | [Ccfg] "^V"[Cceg]/ [Ccdg]/ [Cceg]2 | "^vi"[DAdf] [DAdf] "^vi¹"[FAdf] "^vi"[DAdf] | [A,Ade] "^III"[A,A_de]/ [A,A=Be]/ "^iii"[A,Ace]2 | "^IV"[B,Fd] "^IV¹"[DFBd] "^I"[FAc] "^vi"[DAdf] | "^V"[Cceg] "^I"[Fcfa] [Ccfg] "^V"[Cceg] | "^I"[F,Af]4 | [Fca]2 [Fca]2 | "^IV"[B,Fdb]4 | "^V"[Cceg]2 [Cceg]2 | "^I"[Fcfa]4 | "^V"[Ccec'] "^I¹"[A,cfc'] "^IV"[B,dfb] "^I"[Fcfa] | [Ccfg] "^V"[Cceg] "^I"[Fcfa]2 | "^I¹"[A,Ffc'] "^I"[F,Afc']/ "^Imaj7"[F,Aec']/ "^ii"[G,Bdb] "^I¹"[A,cfa] | "^ii7¹"[B,dfg] "^V"[Cceg]/ "^V7"[CBeg]/ "^I"[FAf]2 |]
